teams/dark/139.svg

<svg xmlns="http://www.w3.org/2000/svg" viewBox="0 0 300 300"><title>Tampa Bay Rays cap on dark logo</title><path fill="#fff" d="M69.73 187.42c1.66-.25 23.01-4.21 23.01-4.21V57.08h-34.8l-.16.06c-12.4 4.9-16.63 21.96-17.47 26.04 0 .03-.02.11-.02.11l-5.4-.3 4.61-38.58 133.09-.06v.02l5.1 43.29-.53.02-1.01.08-3.89.21c-.81-3.9-5.46-25.88-17.94-30.84l-.17-.05h-35.1v126.15s21.74 3.96 23.18 4.21v6.93h-72.5Zm192.71 51.74v5.51h-1.38v-5.51h-2.02v-1.18h5.44v1.18Zm9.87 5.51v-5.33h-.04l-1.96 5.33h-1.32l-1.88-5.33h-.05v5.33h-1.37v-6.69h2.38l1.58 4.36 1.64-4.36h2.36v6.69Zm-141.18 6.29v-6.98c1.41-.22 23.54-4.08 24.15-4.2h.02V109.75s-22.72-3.73-24.16-3.94v-6.99h67.3c.12 0 .23 0 .36.02 32.8.06 49.44 9.85 49.44 33.7 0 29.79-33.1 38.36-33.1 38.36v.03s42.69-1.01 42.69 37.04c0 28.95-18.57 43.01-50.38 43.01h-76.31Zm91.16-111.94c0-34.07-32.7-32.22-32.7-32.22-1.73 0-5.46 0-7.42.19l-.82.12v134.97h15.03c24.53 0 34.81-15.68 35.42-31.5.02-.51.04-1.02.04-1.54 0-29.23-37.65-32.75-40.89-33.02v-4.57s30.25-3.09 31.31-30.96c.02-.48.02-.97.02-1.48Z"/><path fill="#8fbce6" d="M92.74 57.1h-34.8l-.16.06c-12.39 4.9-16.62 21.96-17.46 26.04 0 .03-.02.08-.02.09l-5.4-.28-.56 4.53 9.92.52.4-1.96c.67-3.26 4.59-19.71 15.88-24.36h32.19v-4.65Zm88.6 50.01v134.98h14.28-9.63V111.6c2.05-.05 5.9-.16 5.9-.16.27 0 13.45-.6 22.26 7.75 5.22 4.95 7.93 12.1 8.1 21.29.02-.48.02-.97.02-1.48 0-34.07-32.7-32.22-32.7-32.22-1.73 0-5.45 0-7.42.2l-.82.12Zm9.6 64.58v8.83l2.14.18c3.93.3 38.05 3.78 38.72 29.89.02-.51.04-1.02.04-1.54 0-29.23-37.65-32.75-40.89-33.02v-4.33Zm-44.32 16.12s-19.95-3.62-23.17-4.21V61.73h32.24c10.54 4.36 15.19 23.31 16.36 29.03l.4 1.96 9.92-.52-5.62-47.83h-4.15l5.1 43.3-.53.02-1.02.08-3.89.21c-.81-3.92-5.46-25.88-17.95-30.84l-.16-.05h-35.11v126.15s21.75 3.96 23.19 4.21v6.93h-72.5l-.02 4.68h76.91v-11.24Zm8.68-78.04s-22.72-3.73-24.16-3.94v-6.99h-.02v11.3l24.16 3.96.02-4.32Zm96.81 73.65c-7.52-7.37-17.5-10.37-24.83-11.63 10.32-5.1 25.59-16.14 25.59-36.94 0-24.6-16.57-36.03-52.13-36.03h-1.94c32.8.07 49.44 9.86 49.44 33.71 0 29.78-33.1 38.36-33.1 38.36v.02s42.69-.99 42.69 37.06c0 28.94-18.57 42.99-50.38 42.99h-76.31v-6.59h-.03l.02 1.97v9.29h78.64c33.98 0 52.71-16.09 52.71-45.37 0-11.09-3.48-20.16-10.36-26.85"/></svg>

<svg width="300" height="300" viewBox="0 0 300 300" fill="none" xmlns="http://www.w3.org/2000/svg">
<path d="M69.73 187.42C71.39 187.17 92.74 183.21 92.74 183.21V57.08H57.94L57.78 57.14C45.38 62.04 41.15 79.1 40.31 83.18C40.31 83.21 40.29 83.29 40.29 83.29L34.89 82.99L39.5 44.41L172.59 44.35V44.37L177.69 87.66L177.16 87.68L176.15 87.76L172.26 87.97C171.45 84.07 166.8 62.09 154.32 57.13L154.15 57.08H119.05V183.23C119.05 183.23 140.79 187.19 142.23 187.44V194.37H69.73V187.42ZM131.13 250.96V243.98C132.54 243.76 154.67 239.9 155.28 239.78H155.3V109.75C155.3 109.75 132.58 106.02 131.14 105.81V98.82H198.44C198.56 98.82 198.67 98.82 198.8 98.84C231.6 98.9 248.24 108.69 248.24 132.54C248.24 162.33 215.14 170.9 215.14 170.9V170.93C215.14 170.93 257.83 169.92 257.83 207.97C257.83 236.92 239.26 250.98 207.45 250.98H131.14L131.13 250.96ZM222.29 139.02C222.29 104.95 189.59 106.8 189.59 106.8C187.86 106.8 184.13 106.8 182.17 106.99L181.35 107.11V242.08H196.38C220.91 242.08 231.19 226.4 231.8 210.58C231.82 210.07 231.84 209.56 231.84 209.04C231.84 179.81 194.19 176.29 190.95 176.02V171.45C190.95 171.45 221.2 168.36 222.26 140.49C222.28 140.01 222.28 139.52 222.28 139.01L222.29 139.02Z" fill="white"/>
<path d="M92.74 57.1H57.94L57.78 57.16C45.39 62.06 41.16 79.12 40.32 83.2C40.32 83.23 40.3 83.28 40.3 83.29L34.9 83.01L34.34 87.54L44.26 88.06L44.66 86.1C45.33 82.84 49.25 66.39 60.54 61.74H92.73V57.09L92.74 57.1ZM181.34 107.11V242.09H195.62H185.99V111.6C188.04 111.55 191.89 111.44 191.89 111.44C192.16 111.44 205.34 110.84 214.15 119.19C219.37 124.14 222.08 131.29 222.25 140.48C222.27 140 222.27 139.51 222.27 139C222.27 104.93 189.57 106.78 189.57 106.78C187.84 106.78 184.12 106.78 182.15 106.98L181.33 107.1L181.34 107.11ZM190.94 171.69V180.52L193.08 180.7C197.01 181 231.13 184.48 231.8 210.59C231.82 210.08 231.84 209.57 231.84 209.05C231.84 179.82 194.19 176.3 190.95 176.03V171.7L190.94 171.69ZM146.62 187.81C146.62 187.81 126.67 184.19 123.45 183.6V61.73H155.69C166.23 66.09 170.88 85.04 172.05 90.76L172.45 92.72L182.37 92.2L176.75 44.37H172.6L177.7 87.67L177.17 87.69L176.15 87.77L172.26 87.98C171.45 84.06 166.8 62.1 154.31 57.14L154.15 57.09H119.04V183.24C119.04 183.24 140.79 187.2 142.23 187.45V194.38H69.73L69.71 199.06H146.62V187.82V187.81ZM155.3 109.77C155.3 109.77 132.58 106.04 131.14 105.83V98.84H131.12V110.14L155.28 114.1L155.3 109.78V109.77ZM252.11 183.42C244.59 176.05 234.61 173.05 227.28 171.79C237.6 166.69 252.87 155.65 252.87 134.85C252.87 110.25 236.3 98.82 200.74 98.82H198.8C231.6 98.89 248.24 108.68 248.24 132.53C248.24 162.31 215.14 170.89 215.14 170.89V170.91C215.14 170.91 257.83 169.92 257.83 207.97C257.83 236.91 239.26 250.96 207.45 250.96H131.14V244.37H131.11L131.13 246.34V255.63H209.77C243.75 255.63 262.48 239.54 262.48 210.26C262.48 199.17 259 190.1 252.12 183.41" fill="#8FBCE6"/>
</svg>
